assets/sonr-icons/text-strikethrough.svg

<svg xmlns="http://www.w3.org/2000/svg" width="24" height="24" fill="none" viewBox="0 0 24 24"><path fill="#000" d="M8 7.54002C8 5.58502 9.585 3.99902 11.541 3.99902H12C14.209 3.99902 16 5.79002 16 7.99902C16 8.55102 16.448 8.99902 17 8.99902C17.552 8.99902 18 8.55102 18 7.99902C18 4.68602 15.313 1.99902 12 1.99902H11.541C8.481 1.99902 6 4.48002 6 7.54002C6 9.43502 7.153 11.138 8.912 11.841L11.807 12.999H16.449C16.054 12.648 15.597 12.361 15.088 12.157L9.655 9.98402C8.655 9.58402 8.001 8.61602 8.001 7.54002L8.002 7.54102L8 7.54002ZM17.864 15.346C17.812 15.137 17.619 15 17.403 15H16.492C16.093 15 15.837 15.463 15.929 15.852C15.976 16.049 16 16.252 16 16.459C16 18.414 14.415 20 12.459 20H12C9.79 20 8 18.209 8 16C8 15.448 7.552 15 7 15C6.448 15 6 15.448 6 16C6 19.314 8.686 22 12 22H12.459C15.519 22 18 19.52 18 16.459C18 16.078 17.953 15.705 17.864 15.346Z"/><path fill="#000" d="M4 12C4 11.448 4.448 11 5 11H19C19.552 11 20 11.448 20 12C20 12.552 19.552 13 19 13H5C4.448 13 4 12.552 4 12Z"/></svg>

<svg xmlns="http://www.w3.org/2000/svg" width="24" height="24" fill="none"><path fill="currentColor" d="M8 7.54a3.54 3.54 0 0 1 3.541-3.541H12a4 4 0 0 1 4 4 1 1 0 0 0 2 0 6 6 0 0 0-6-6h-.459A5.54 5.54 0 0 0 6 7.54a4.63 4.63 0 0 0 2.912 4.301l2.895 1.158h4.642a4.7 4.7 0 0 0-1.361-.842L9.655 9.984c-1-.4-1.654-1.368-1.654-2.444l.001.001zm9.864 7.806a.47.47 0 0 0-.461-.346h-.911c-.399 0-.655.463-.563.852q.07.296.071.607A3.54 3.54 0 0 1 12.459 20H12a4 4 0 0 1-4-4 1 1 0 0 0-2 0 6 6 0 0 0 6 6h.459A5.54 5.54 0 0 0 18 16.459q-.001-.573-.136-1.113"/><path fill="currentColor" d="M4 12a1 1 0 0 1 1-1h14a1 1 0 0 1 0 2H5a1 1 0 0 1-1-1"/></svg>
